app/public/logos/wbtc.svg

<svg xmlns="http://www.w3.org/2000/svg" width="350pt" height="350pt" style="isolation:isolate" viewBox="0 0 350 350"><defs><clipPath id="a"><path d="M0 0h350v350H0z"/></clipPath></defs><g clip-path="url(#a)"><path d="M0 0h350v350H0z" style="fill:#292038"/><circle cx="175" cy="175" r="175" fill="#FFF" vector-effect="non-scaling-stroke"/><path fill="#5A5564" d="m285.388 73.453-9.61 9.61c47.53 51.978 47.53 131.639 0 183.617l9.61 9.61c52.881-57.358 52.881-145.702 0-203.061zM83.288 74.286c51.978-47.53 131.639-47.53 183.617 0l9.61-9.61c-57.359-52.881-145.703-52.881-203.062 0zM74.286 266.776c-47.472-51.963-47.472-131.557 0-183.52l-9.61-9.611c-52.881 57.359-52.881 145.703 0 203.062zM266.776 275.65c-51.978 47.53-131.639 47.53-183.617 0l-9.61 9.61c57.359 52.881 145.703 52.881 203.062 0z"/><path fill="#F09242" d="M235.672 142.934c-1.922-20.053-19.22-26.78-41.099-28.83V86.491h-16.914v27.1h-13.518v-27.1h-16.786v27.805h-34.308v18.099s12.493-.224 12.301 0a8.745 8.745 0 0 1 9.61 7.432v76.112a5.93 5.93 0 0 1-2.05 4.132 5.86 5.86 0 0 1-4.357 1.474c.224.192-12.301 0-12.301 0l-3.203 20.213h33.988v28.254h16.913v-27.837h13.519v27.709h16.945V241.95c28.574-1.729 48.499-8.777 50.998-35.525 2.018-21.527-8.104-31.137-24.282-35.013 9.835-4.837 15.921-13.806 14.544-28.478m-23.705 60.16c0 21.014-36.006 18.611-47.474 18.611v-37.287c11.468.032 47.474-3.268 47.474 18.676m-7.848-52.536c0 19.221-30.048 16.882-39.594 16.882v-33.892c9.546 0 39.594-3.011 39.594 17.01"/><path fill="#282138" d="M174.968 350C78.326 349.982-.006 271.631 0 174.989S78.348.006 174.989 0 349.982 78.326 350 174.968a175 175 0 0 1-51.256 123.776A175 175 0 0 1 174.968 350m0-336.354c-89.035.071-161.165 72.287-161.129 161.322.035 89.035 72.222 161.193 161.257 161.193s161.222-72.158 161.258-161.193A161.257 161.257 0 0 0 174.968 13.646"/></g></svg>

<?xml version="1.0" encoding="UTF-8" standalone="no"?><!-- Generator: Gravit.io --><svg xmlns="http://www.w3.org/2000/svg" xmlns:xlink="http://www.w3.org/1999/xlink" style="isolation:isolate" viewBox="0 0 350 350" width="350pt" height="350pt"><defs><clipPath id="_clipPath_N30hEmRT68LZYPg7VFbkXabBMLnIqUaf"><rect width="350" height="350"/></clipPath></defs><g clip-path="url(#_clipPath_N30hEmRT68LZYPg7VFbkXabBMLnIqUaf)"><rect width="350" height="350" style="fill:rgb(41,32,56)"/><circle vector-effect="non-scaling-stroke" cx="175.00000000000003" cy="175.00000000000003" r="175" fill="rgb(255,255,255)"/><g><g><g><g><path d=" M 285.388 73.453 L 275.778 83.063 C 323.308 135.041 323.308 214.702 275.778 266.68 L 285.388 276.29 C 338.269 218.932 338.269 130.588 285.388 73.229 L 285.388 73.453 Z " fill="rgb(90,85,100)"/><path d=" M 83.288 74.286 C 135.266 26.756 214.927 26.756 266.905 74.286 L 276.515 64.676 C 219.156 11.795 130.812 11.795 73.453 64.676 L 83.288 74.286 Z " fill="rgb(90,85,100)"/><path d=" M 74.286 266.776 C 26.814 214.813 26.814 135.219 74.286 83.256 L 64.676 73.645 C 11.795 131.004 11.795 219.348 64.676 276.707 L 74.286 266.776 Z " fill="rgb(90,85,100)"/><path d=" M 266.776 275.65 C 214.798 323.18 135.137 323.18 83.159 275.65 L 73.549 285.26 C 130.908 338.141 219.252 338.141 276.611 285.26 L 266.776 275.65 Z " fill="rgb(90,85,100)"/><path d=" M 235.672 142.934 C 233.75 122.881 216.452 116.154 194.573 114.104 L 194.573 86.491 L 177.659 86.491 L 177.659 113.591 C 173.206 113.591 168.657 113.591 164.141 113.591 L 164.141 86.491 L 147.355 86.491 L 147.355 114.296 L 113.047 114.296 L 113.047 132.395 C 113.047 132.395 125.54 132.171 125.348 132.395 C 130.03 131.88 134.279 135.166 134.958 139.827 L 134.958 215.939 C 134.861 217.537 134.121 219.027 132.908 220.071 C 131.717 221.135 130.143 221.668 128.551 221.545 C 128.775 221.737 116.25 221.545 116.25 221.545 L 113.047 241.758 L 147.035 241.758 L 147.035 270.012 L 163.948 270.012 L 163.948 242.175 L 177.467 242.175 L 177.467 269.884 L 194.412 269.884 L 194.412 241.95 C 222.986 240.221 242.911 233.173 245.41 206.425 C 247.428 184.898 237.306 175.288 221.128 171.412 C 230.963 166.575 237.049 157.606 235.672 142.934 Z  M 211.967 203.094 C 211.967 224.108 175.961 221.705 164.493 221.705 L 164.493 184.418 C 175.961 184.45 211.967 181.15 211.967 203.094 Z  M 204.119 150.558 C 204.119 169.779 174.071 167.44 164.525 167.44 L 164.525 133.548 C 174.071 133.548 204.119 130.537 204.119 150.558 Z " fill="rgb(240,146,66)"/><path d=" M 174.968 350 C 78.326 349.982 -0.006 271.631 0 174.989 C 0.006 78.348 78.348 0.006 174.989 0 C 271.631 -0.006 349.982 78.326 350 174.968 C 350.008 221.392 331.57 265.917 298.744 298.744 C 265.917 331.57 221.392 350.008 174.968 350 L 174.968 350 Z  M 174.968 13.646 C 85.933 13.717 13.803 85.933 13.839 174.968 C 13.874 264.003 86.061 336.161 175.096 336.161 C 264.131 336.161 336.318 264.003 336.354 174.968 C 336.371 132.166 319.371 91.114 289.1 60.855 C 258.829 30.596 217.769 13.612 174.968 13.646 L 174.968 13.646 Z " fill="rgb(40,33,56)"/></g></g></g></g></g></svg>
